; generated by PrusaSlicer 2.8.0+win64 on 2024-08-15 at 07:02:00 UTC


;
;
; 

; external perimeters extrusion width = 0.60mm
; perimeters extrusion width = 0.50mm
; infill extrusion width = 0.50mm
; solid infill extrusion width = 0.50mm
; top infill extrusion width = 0.45mm
; first layer extrusion width = 0.42mm

M73 P0 R82
M73 Q0 S82
M201 X1000 Y1000 Z200 E5000 ; sets maximum accelerations, mm/sec^2
M203 X200 Y200 Z12 E120 ; sets maximum feedrates, mm / sec
M204 S1250 T1250 ; sets acceleration (S) and retract acceleration (R), mm/sec^2
M205 X8.00 Y8.00 Z0.40 E4.50 ; sets the jerk limits, mm/sec
M205 S0 T0 ; sets the minimum extruding and travel feed rate, mm/sec

; printing object triangles.stl id:0 copy 0
; stop printing object triangles.stl id:0 copy 0

;TYPE:Custom
M862.3 P "MK3S" ; printer model check
M862.1 P0.4 ; nozzle diameter check
M115 U3.12.2 ; tell printer latest fw version
G90 ; use absolute coordinates
M83 ; extruder relative mode
M104 S240 ; set extruder temp
M140 S85 ; set bed temp
M190 S85 ; wait for bed temp
M109 S240 ; wait for extruder temp
G28 W ; home all without mesh bed level
G80 ; mesh bed leveling

G1 Z0.2 F720
G1 Y-3 F1000 ; go outside print area
G92 E0
G1 X60 E9 F1000 ; intro line
G1 X100 E12.5 F1000 ; intro line

G92 E0
M221 S95

; Don't change E values below. Excessive value can damage the printer.

M907 E538 ; set extruder motor current
G21 ; set units to millimeters
G90 ; use absolute coordinates
M83 ; use relative distances for extrusion
M900 K0.08 ; Filament gcode LA 1.5
M900 K45 ; Filament gcode LA 1.0
M107
;LAYER_CHANGE
;Z:0.2
;HEIGHT:0.2
G1 E-1 F2100
G1 Z.4 F720
G1 X95.584 Y62.455 F10800
G1 Z.2 F720
G1 E1 F2100
M204 S800
;TYPE:Skirt/Brim
;WIDTH:0.42
G1 F1200
G1 X96.74 Y61.49 E.04721
G1 X105.142 Y58.475 E.27989
G1 X105.881 Y58.346 E.02352
G1 X129.093 Y58.346 E.7278
G1 X168.593 Y58.635 E1.23853
G1 X169.839 Y59.035 E.04103
G1 X170.633 Y60.073 E.04098
G1 X170.473 Y61.917 E.05803
G1 X159.374 Y81.14 E.69597
G1 X158.347 Y82.055 E.04313
G1 X149.695 Y85.792 E.2955
G1 X148.843 Y85.971 E.0273
G1 X109.343 Y86.26 E1.23853
G1 X85.631 Y86.26 E.74347
G1 X84.383 Y85.869 E.04101
G1 X83.58 Y84.836 E.04102
G1 X83.736 Y82.977 E.05849
G1 X95.554 Y62.507 E.74111
M73 P0 R81
M204 S1000
;WIPE_START
G1 F8640
G1 X95.584 Y62.455 E-.01386
G1 X96.74 Y61.49 E-.3477
G1 X99.342 Y60.556 E-.63844
;WIPE_END
G1 Z.4 F720
; printing object triangles.stl id:0 copy 0
G1 X97.445 Y65.927 F10800
G1 Z.2 F720
G1 E1 F2100
M204 S800
;TYPE:External perimeter
;WIDTH:0.457864
G1 F1200
G1 X97.479 Y65.918 E.00121
G1 X97.536 Y65.932 E.00203
;WIDTH:0.495729
G1 X97.594 Y65.946 E.00225
;WIDTH:0.533594
G1 X97.651 Y65.961 E.0024
;WIDTH:0.571459
G1 X97.708 Y65.975 E.00258
G1 X107.342 Y82.66 E.84673
G1 X107.325 Y82.717 E.00261
;WIDTH:0.533596
G1 X107.309 Y82.774 E.00242
;WIDTH:0.49573
G1 X107.292 Y82.83 E.0022
;WIDTH:0.457865
G1 X107.276 Y82.887 E.00204
;WIDTH:0.458866
G1 X107.247 Y82.929 E.00177
;WIDTH:0.497732
G1 X107.217 Y82.971 E.00195
;WIDTH:0.536599
G1 X107.188 Y83.013 E.0021
;WIDTH:0.575465
G1 X107.159 Y83.055 E.00226
G1 X107.113 Y83.057 E.00204
;WIDTH:0.57146
G1 X88.101 Y83.057 E.83554
G1 X88.044 Y82.987 E.00397
;WIDTH:0.533595
G1 X87.988 Y82.917 E.00366
;WIDTH:0.49573
G1 X87.931 Y82.846 E.00343
;WIDTH:0.457865
G1 X87.874 Y82.776 E.00311
;WIDTH:0.458866
G1 X87.836 Y82.702 E.00288
;WIDTH:0.497732
G1 X87.799 Y82.628 E.00313
;WIDTH:0.536599
G1 X87.761 Y82.554 E.00341
;WIDTH:0.575465
G1 X87.723 Y82.48 E.00368
G1 X87.745 Y82.439 E.00206
;WIDTH:0.57146
G1 X97.25 Y65.975 E.83549
G1 X97.307 Y65.961 E.00258
;WIDTH:0.533594
G1 X97.365 Y65.946 E.00244
;WIDTH:0.495729
G1 X97.387 Y65.941 E.00085
M204 S1000
G1 X97.422 Y65.599 F10800
M204 S800
;TYPE:Perimeter
;WIDTH:0.37056
G1 F1200
G1 X97.054 Y65.812 E.01158
G1 X97.479 Y65.074 E.0232
G1 X97.905 Y65.812 E.02321
G1 X97.479 Y65.566 E.0134
G1 X97.474 Y65.569 E.00016
M204 S1000
;WIPE_START
G1 F8640
G1 X97.422 Y65.599 E-.01386
G1 X97.054 Y65.812 E-.09818
G1 X97.479 Y65.074 E-.19664
G1 X97.905 Y65.812 E-.19676
G1 X97.479 Y65.566 E-.11359
G1 X97.474 Y65.569 E-.00135
;WIPE_END
G1 E-.37962 F2100
G1 Z.4 F720
G1 X87.444 Y82.529 F10800
G1 Z.2 F720
G1 E1 F2100
M204 S800
;WIDTH:0.444381
G1 F1200
G1 X87.473 Y82.86 E.01109
G1 X87.601 Y83.082 E.00855
G1 X87.931 Y83.272 E.01271
G1 X87.015 Y83.272 E.03058
G1 X87.414 Y82.581 E.02664
M204 S1000
;WIPE_START
G1 F8640
G1 X87.444 Y82.529 E-.01386
G1 X87.473 Y82.86 E-.07672
G1 X87.601 Y83.082 E-.05917
G1 X87.931 Y83.272 E-.08793
G1 X87.015 Y83.272 E-.21151
G1 X87.414 Y82.581 E-.18424
;WIPE_END
G1 E-.36657 F2100
G1 Z.4 F720
G1 X108.007 Y83.309 F10800
G1 Z.2 F720
G1 E1 F2100
M204 S800
;WIDTH:0.370561
G1 F1200
G1 X107.23 Y83.309 E.02117
G1 X107.581 Y83.063 E.01168
G1 X107.581 Y82.572 E.01338
G1 X107.977 Y83.257 E.02156
M204 S1000
G1 X107.977 Y83.257 F10800
G1 X108.617 Y83.661
M204 S800
;TYPE:External perimeter
;WIDTH:0.419999
G1 F1200
G1 X107.723 Y83.661 E.02803
;WIDTH:0.457865
G1 X107.57 Y83.642 E.00532
;WIDTH:0.49573
G1 X107.418 Y83.623 E.00577
;WIDTH:0.533595
G1 X107.265 Y83.604 E.00629
;WIDTH:0.57146
G1 X107.113 Y83.585 E.00673
G1 X88.101 Y83.585 E.83554
G1 X87.949 Y83.604 E.00673
;WIDTH:0.533595
G1 X87.796 Y83.623 E.00629
;WIDTH:0.49573
G1 X87.644 Y83.642 E.00577
;WIDTH:0.457865
G1 X87.491 Y83.661 E.00532
;WIDTH:0.419999
G1 X86.341 Y83.661 E.03606
G1 X86.916 Y82.665 E.03606
;WIDTH:0.457865
G1 X87.009 Y82.543 E.00529
;WIDTH:0.49573
G1 X87.101 Y82.42 E.00578
;WIDTH:0.533595
G1 X87.194 Y82.297 E.00629
;WIDTH:0.571458
G1 X87.287 Y82.175 E.00674
G1 X96.793 Y65.71 E.83555
G1 X96.852 Y65.569 E.00672
;WIDTH:0.533594
G1 X96.912 Y65.427 E.00629
;WIDTH:0.495729
G1 X96.972 Y65.286 E.00577
;WIDTH:0.457864
G1 X97.032 Y65.144 E.00532
;WIDTH:0.419999
G1 X97.479 Y64.37 E.02802
G1 X97.926 Y65.144 E.02802
;WIDTH:0.457864
G1 X97.986 Y65.286 E.00532
;WIDTH:0.495729
G1 X98.046 Y65.427 E.00577
;WIDTH:0.533594
G1 X98.106 Y65.569 E.00629
;WIDTH:0.571461
G1 X98.166 Y65.71 E.00673
G1 X107.799 Y82.396 E.84675
G1 X107.892 Y82.519 E.00678
;WIDTH:0.533596
G1 X107.985 Y82.642 E.00629
;WIDTH:0.49573
G1 X108.077 Y82.764 E.00575
;WIDTH:0.457865
G1 X108.17 Y82.887 E.00532
;WIDTH:0.419999
G1 X108.587 Y83.609 E.02614
M204 S1000
;WIPE_START
G1 F8640
G1 X108.617 Y83.661 E-.01386
G1 X107.723 Y83.661 E-.20643
G1 X107.57 Y83.642 E-.0356
G1 X107.418 Y83.623 E-.03537
G1 X107.265 Y83.604 E-.0356
G1 X107.113 Y83.585 E-.03537
G1 X104.351 Y83.585 E-.63777
;WIPE_END
G1 Z.4 F720
G1 X117.479 Y78.033 F10800
G1 Z.2 F720
G1 E1 F2100
M204 S800
;WIDTH:0.458866
G1 F1200
G1 X117.396 Y78.029 E.00287
;WIDTH:0.497733
G1 X117.313 Y78.024 E.00314
;WIDTH:0.5366
G1 X117.23 Y78.02 E.00341
;WIDTH:0.575466
G1 X117.147 Y78.015 E.00368
G1 X117.122 Y77.977 E.00201
;WIDTH:0.57146
G1 X107.867 Y61.945 E.81355
G1 X107.883 Y61.889 E.00256
;WIDTH:0.533594
G1 X107.899 Y61.832 E.00242
;WIDTH:0.495729
G1 X107.916 Y61.775 E.00224
;WIDTH:0.457864
G1 X107.932 Y61.719 E.00201
;WIDTH:0.458866
G1 X107.962 Y61.677 E.00179
;WIDTH:0.497732
G1 X107.991 Y61.635 E.00193
;WIDTH:0.536599
G1 X108.02 Y61.593 E.0021
;WIDTH:0.575465
G1 X108.05 Y61.551 E.00229
G1 X108.096 Y61.549 E.00204
;WIDTH:0.57146
G1 X126.863 Y61.549 E.82478
G1 X126.904 Y61.591 E.00258
;WIDTH:0.533595
G1 X126.944 Y61.634 E.0024
;WIDTH:0.49573
G1 X126.985 Y61.676 E.00221
;WIDTH:0.457865
G1 X127.026 Y61.719 E.00205
;WIDTH:0.458866
G1 X127.048 Y61.765 E.00176
;WIDTH:0.497732
G1 X127.069 Y61.812 E.00195
;WIDTH:0.536599
G1 X127.091 Y61.858 E.00209
;WIDTH:0.575465
G1 X127.113 Y61.904 E.00226
G1 X127.092 Y61.945 E.00204
;WIDTH:0.57146
G1 X117.836 Y77.977 E.81358
G1 X117.747 Y77.991 E.00396
;WIDTH:0.533595
G1 X117.657 Y78.005 E.00372
;WIDTH:0.49573
G1 X117.568 Y78.019 E.00339
;WIDTH:0.457865
G1 X117.538 Y78.024 E.00105
M204 S1000
;WIPE_START
G1 F8640
G1 X117.479 Y78.033 E-.01378
G1 X117.396 Y78.029 E-.01919
G1 X117.313 Y78.024 E-.0192
G1 X117.23 Y78.02 E-.01919
G1 X117.147 Y78.015 E-.0192
G1 X117.122 Y77.977 E-.0105
G1 X115.176 Y74.605 E-.89894
;WIPE_END
G1 Z.4 F720
G1 X107.201 Y61.297 F10800
G1 Z.2 F720
G1 E1 F2100
M204 S800
;TYPE:Perimeter
;WIDTH:0.370561
G1 F1200
G1 X107.978 Y61.297 E.02117
G1 X107.627 Y61.543 E.01168
G1 X107.627 Y62.034 E.01338
G1 X107.231 Y61.349 E.02156
M204 S1000
;WIPE_START
G1 F8640
G1 X107.201 Y61.297 E-.01386
G1 X107.978 Y61.297 E-.17941
G1 X107.627 Y61.543 E-.09897
G1 X107.627 Y62.034 E-.11337
G1 X107.231 Y61.349 E-.1827
;WIPE_END
G1 E-.41169 F2100
G1 Z.4 F720
G1 X117.479 Y78.422 F10800
G1 Z.2 F720
G1 E1 F2100
M204 S800
;WIDTH:0.444381
G1 F1200
G1 X117.607 Y78.422 E.00427
G1 X117.937 Y78.232 E.01271
G1 X117.479 Y79.024 E.03054
G1 X117.05 Y78.282 E.02861
G1 X117.351 Y78.422 E.01108
G1 X117.419 Y78.422 E.00227
M204 S1000
;WIPE_START
G1 F8640
G1 X117.479 Y78.422 E-.01385
G1 X117.607 Y78.422 E-.02956
G1 X117.937 Y78.232 E-.08793
G1 X117.479 Y79.024 E-.21125
G1 X117.05 Y78.282 E-.1979
G1 X117.351 Y78.422 E-.07665
G1 X117.419 Y78.422 E-.0157
;WIPE_END
G1 E-.36716 F2100
G1 Z.4 F720
G1 X127.368 Y61.97 F10800
G1 Z.2 F720
G1 E1 F2100
M204 S800
;WIDTH:0.37056
G1 F1200
G1 X127.331 Y61.543 E.01168
G1 X126.906 Y61.297 E.01338
G1 X127.757 Y61.297 E.02318
G1 X127.398 Y61.918 E.01954
M204 S1000
;WIPE_START
G1 F8640
G1 X127.368 Y61.97 E-.01386
G1 X127.331 Y61.543 E-.09896
G1 X126.906 Y61.297 E-.11339
G1 X127.757 Y61.297 E-.1965
G1 X127.398 Y61.918 E-.16563
;WIPE_END
G1 E-.41166 F2100
G1 Z.4 F720
G1 X117.479 Y79.803 F10800
G1 Z.2 F720
G1 E1 F2100
M204 S800
;TYPE:External perimeter
;WIDTH:0.419999
G1 F1200
G1 X116.904 Y78.807 E.03606
;WIDTH:0.457865
G1 X116.844 Y78.666 E.00529
;WIDTH:0.49573
G1 X116.784 Y78.524 E.0058
;WIDTH:0.533595
G1 X116.725 Y78.382 E.00627
;WIDTH:0.571459
G1 X116.665 Y78.241 E.00673
G1 X107.409 Y62.209 E.81357
G1 X107.316 Y62.087 E.00674
;WIDTH:0.533594
G1 X107.224 Y61.964 E.00627
;WIDTH:0.495729
G1 X107.131 Y61.841 E.00581
;WIDTH:0.457864
G1 X107.038 Y61.719 E.00529
;WIDTH:0.419999
G1 X106.591 Y60.945 E.02802
G1 X107.485 Y60.945 E.02803
;WIDTH:0.457865
G1 X107.638 Y60.963 E.00532
;WIDTH:0.49573
G1 X107.79 Y60.982 E.00577
;WIDTH:0.533595
G1 X107.943 Y61.001 E.00629
;WIDTH:0.57146
G1 X108.096 Y61.02 E.00678
G1 X126.863 Y61.02 E.82478
G1 X127.015 Y61.001 E.00673
;WIDTH:0.533595
G1 X127.168 Y60.982 E.00629
;WIDTH:0.49573
G1 X127.32 Y60.963 E.00577
;WIDTH:0.457865
G1 X127.473 Y60.945 E.00532
;WIDTH:0.419999
G1 X128.367 Y60.945 E.02803
G1 X127.92 Y61.719 E.02802
;WIDTH:0.457864
G1 X127.827 Y61.841 E.00529
;WIDTH:0.495729
G1 X127.735 Y61.964 E.00578
;WIDTH:0.533594
G1 X127.642 Y62.087 E.00629
;WIDTH:0.57146
G1 X127.549 Y62.209 E.00674
G1 X118.294 Y78.241 E.81355
G1 X118.234 Y78.382 E.00673
;WIDTH:0.533595
G1 X118.174 Y78.524 E.00629
;WIDTH:0.49573
G1 X118.114 Y78.666 E.0058
;WIDTH:0.457865
G1 X118.054 Y78.807 E.00529
;WIDTH:0.419999
G1 X117.509 Y79.751 E.03418
M204 S1000
;WIPE_START
G1 F8640
G1 X117.479 Y79.803 E-.01386
G1 X116.904 Y78.807 E-.26555
G1 X116.844 Y78.666 E-.03538
G1 X116.784 Y78.524 E-.03559
G1 X116.725 Y78.382 E-.03551
G1 X116.665 Y78.241 E-.03538
G1 X115.412 Y76.07 E-.57873
;WIPE_END
G1 Z.4 F720
G1 X137.479 Y66.717 F10800
G1 Z.2 F720
G1 E1 F2100
M204 S800
;WIDTH:0.458866
G1 F1200
G1 X137.562 Y66.721 E.00287
;WIDTH:0.497733
G1 X137.645 Y66.726 E.00314
;WIDTH:0.5366
G1 X137.728 Y66.73 E.00341
;WIDTH:0.575466
G1 X137.811 Y66.735 E.00368
G1 X137.836 Y66.773 E.00201
;WIDTH:0.57146
G1 X146.842 Y82.372 E.7916
G1 X146.825 Y82.428 E.00257
;WIDTH:0.533595
G1 X146.809 Y82.485 E.00242
;WIDTH:0.49573
G1 X146.792 Y82.542 E.00224
;WIDTH:0.457865
G1 X146.776 Y82.598 E.00201
;WIDTH:0.458866
G1 X146.747 Y82.64 E.00177
;WIDTH:0.497733
G1 X146.717 Y82.682 E.00195
;WIDTH:0.5366
G1 X146.688 Y82.724 E.0021
;WIDTH:0.575466
G1 X146.659 Y82.766 E.00226
G1 X146.613 Y82.768 E.00204
;WIDTH:0.571461
G1 X128.346 Y82.768 E.8028
G1 X128.305 Y82.726 E.00258
;WIDTH:0.533596
G1 X128.264 Y82.683 E.00242
;WIDTH:0.49573
G1 X128.223 Y82.641 E.00221
;WIDTH:0.457865
G1 X128.182 Y82.598 E.00205
;WIDTH:0.458866
G1 X128.161 Y82.552 E.00175
;WIDTH:0.497733
G1 X128.139 Y82.505 E.00196
;WIDTH:0.5366
G1 X128.117 Y82.459 E.00209
;WIDTH:0.575466
G1 X128.095 Y82.413 E.00226
G1 X128.117 Y82.372 E.00206
;WIDTH:0.571461
G1 X137.122 Y66.773 E.79158
G1 X137.212 Y66.759 E.004
;WIDTH:0.533596
G1 X137.301 Y66.745 E.00368
;WIDTH:0.49573
G1 X137.39 Y66.731 E.00339
;WIDTH:0.457865
G1 X137.42 Y66.726 E.00105
M204 S1000
G1 X137.42 Y66.726 F10800
G1 X137.479 Y66.328
M204 S800
;TYPE:Perimeter
;WIDTH:0.44438
G1 F1200
G1 X137.351 Y66.328 E.00427
G1 X137.022 Y66.518 E.01268
G1 X137.479 Y65.726 E.03052
G1 X137.908 Y66.468 E.02861
G1 X137.607 Y66.328 E.01108
G1 X137.539 Y66.328 E.00227
M204 S1000
;WIPE_START
G1 F8640
G1 X137.479 Y66.328 E-.01385
G1 X137.351 Y66.328 E-.02956
G1 X137.022 Y66.518 E-.08773
G1 X137.479 Y65.726 E-.21114
G1 X137.908 Y66.468 E-.1979
G1 X137.607 Y66.328 E-.07665
G1 X137.539 Y66.328 E-.0157
;WIPE_END
G1 E-.36747 F2100
G1 Z.4 F720
G1 X147.081 Y82.283 F10800
G1 Z.2 F720
G1 E1 F2100
M204 S800
;WIDTH:0.370561
G1 F1200
G1 X147.507 Y83.02 E.02319
G1 X146.73 Y83.02 E.02117
G1 X147.081 Y82.774 E.01168
G1 X147.081 Y82.343 E.01174
M204 S1000
;WIPE_START
G1 F8640
G1 X147.081 Y82.283 E-.01385
G1 X147.507 Y83.02 E-.19656
G1 X146.73 Y83.02 E-.17941
G1 X147.081 Y82.774 E-.09897
G1 X147.081 Y82.343 E-.09952
;WIPE_END
G1 E-.41169 F2100
G1 Z.4 F720
G1 X127.84 Y82.347 F10800
G1 Z.2 F720
G1 E1 F2100
M204 S800
G1 F1200
G1 X127.877 Y82.774 E.01168
G1 X128.303 Y83.02 E.0134
G1 X127.451 Y83.02 E.02321
G1 X127.81 Y82.399 E.01954
M204 S1000
;WIPE_START
G1 F8640
G1 X127.84 Y82.347 E-.01386
G1 X127.877 Y82.774 E-.09896
G1 X128.303 Y83.02 E-.11359
G1 X127.451 Y83.02 E-.19673
G1 X127.81 Y82.399 E-.16563
;WIPE_END
G1 E-.41123 F2100
G1 Z.4 F720
G1 X137.479 Y64.947 F10800
G1 Z.2 F720
G1 E1 F2100
M204 S800
;TYPE:External perimeter
;WIDTH:0.419999
G1 F1200
G1 X138.054 Y65.943 E.03606
;WIDTH:0.457865
G1 X138.114 Y66.084 E.00529
;WIDTH:0.49573
G1 X138.174 Y66.226 E.0058
;WIDTH:0.533595
G1 X138.234 Y66.368 E.00629
;WIDTH:0.57146
G1 X138.294 Y66.509 E.00673
G1 X147.299 Y82.108 E.79158
G1 X147.392 Y82.23 E.00674
;WIDTH:0.533595
G1 X147.485 Y82.353 E.00629
;WIDTH:0.49573
G1 X147.577 Y82.476 E.00578
;WIDTH:0.457865
G1 X147.67 Y82.598 E.00529
;WIDTH:0.419999
G1 X148.117 Y83.372 E.02802
G1 X147.223 Y83.372 E.02803
;WIDTH:0.457865
G1 X147.07 Y83.354 E.00532
;WIDTH:0.49573
G1 X146.918 Y83.335 E.00577
;WIDTH:0.533596
G1 X146.765 Y83.316 E.00629
;WIDTH:0.571461
G1 X146.613 Y83.297 E.00673
G1 X128.346 Y83.297 E.8028
G1 X128.193 Y83.316 E.00678
;WIDTH:0.533596
G1 X128.04 Y83.335 E.00629
;WIDTH:0.49573
G1 X127.888 Y83.354 E.00577
;WIDTH:0.457865
G1 X127.735 Y83.372 E.00532
;WIDTH:0.419999
G1 X126.841 Y83.372 E.02803
G1 X127.288 Y82.598 E.02802
;WIDTH:0.457864
G1 X127.381 Y82.476 E.00529
;WIDTH:0.495729
G1 X127.474 Y82.353 E.00581
;WIDTH:0.533594
G1 X127.566 Y82.23 E.00627
;WIDTH:0.571461
G1 X127.659 Y82.108 E.00674
G1 X136.665 Y66.509 E.7916
G1 X136.725 Y66.368 E.00673
;WIDTH:0.533596
G1 X136.784 Y66.226 E.00627
;WIDTH:0.49573
G1 X136.844 Y66.084 E.0058
;WIDTH:0.457865
G1 X136.904 Y65.943 E.00529
;WIDTH:0.419999
G1 X137.449 Y64.999 E.03418
M204 S1000
;WIPE_START
G1 F8640
G1 X137.479 Y64.947 E-.01386
G1 X138.054 Y65.943 E-.26555
G1 X138.114 Y66.084 E-.03538
G1 X138.174 Y66.226 E-.03559
G1 X138.234 Y66.368 E-.03559
G1 X138.294 Y66.509 E-.03538
G1 X139.547 Y68.679 E-.57865
;WIPE_END
G1 Z.4 F720
G1 X148.423 Y62.041 F10800
G1 Z.2 F720
G1 E1 F2100
M204 S800
;WIDTH:0.457864
G1 F1200
G1 X148.432 Y62.007 E.00121
;WIDTH:0.458866
G1 X148.462 Y61.965 E.00179
;WIDTH:0.497732
G1 X148.491 Y61.923 E.00193
;WIDTH:0.536599
G1 X148.52 Y61.881 E.0021
;WIDTH:0.575465
G1 X148.55 Y61.839 E.00229
G1 X148.596 Y61.837 E.00204
;WIDTH:0.57146
G1 X166.363 Y61.837 E.78083
G1 X166.404 Y61.88 E.00261
;WIDTH:0.533595
G1 X166.444 Y61.922 E.00237
;WIDTH:0.49573
G1 X166.485 Y61.965 E.00224
;WIDTH:0.457865
G1 X166.526 Y62.007 E.00203
;WIDTH:0.458866
G1 X166.548 Y62.054 E.00179
;WIDTH:0.497732
G1 X166.569 Y62.1 E.00191
;WIDTH:0.536599
G1 X166.591 Y62.147 E.00213
;WIDTH:0.575465
G1 X166.613 Y62.193 E.00226
G1 X166.592 Y62.234 E.00204
;WIDTH:0.57146
