; generated by PrusaSlicer 2.5.2+win64 on 2023-05-09 at 17:21:40 UTC

; external perimeters extrusion width = 1.20mm
; perimeters extrusion width = 0.45mm
; infill extrusion width = 0.45mm
; solid infill extrusion width = 0.45mm
; top infill extrusion width = 0.40mm
; first layer extrusion width = 0.42mm
M73 P0 R7
M73 Q0 S7
M201 X1000 Y1000 Z200 E5000 ; sets maximum accelerations, mm/sec^2
M203 X200 Y200 Z12 E120 ; sets maximum feedrates, mm / sec
M204 P1250 R1250 T1250 ; sets acceleration (P, T) and retract acceleration (R), mm/sec^2
M205 X8.0 Y8.0 Z0.4 E4.5 ; sets the jerk limits, mm/sec
M205 S0 T0 ; sets the minimum extruding and travel feed rate, mm/sec
M107
; TYPE:Custom
M862
; printer model check
M862
; nozzle diameter check
M115 U3.12.2 ; tell printer latest fw version
G90  ; use absolute coordinates
M83  ; extruder relative mode
M104 S230 ; set extruder temp
M140 S60 ; set bed temp
M190 S60 ; wait for bed temp
M109 S230 ; wait for extruder temp
G28 WTrue ; home all without mesh bed level
G80  ; mesh bed leveling
G1 Z0.2 F720
G1 Y-3 F1000 ; go outside print area
G92 E0
G1 X60 E9 F1000 ; intro line
G1 X100 E12.5 F1000 ; intro line
G92 E0
M221 S95
; Don't change E values below. Excessive value can damage the printer.
M907 E430 ; set extruder motor current
G21  ; set units to millimeters
G90  ; use absolute coordinates
M83  ; use relative distances for extrusion
M900 K0 ; Filament gcode
M107
; LAYER_CHANGE
; Z:0.2
; HEIGHT:0.2
; BEFORE_LAYER_CHANGE
G92 E0.0
; 0.2
G1 Z0.2 F720
; AFTER_LAYER_CHANGE
; 0.2
M73 P1 R7
M73 Q1 S7
G1 E-1.2 F2100
G1 X114.98 Y96.401 F10800
G1 E1.2 F1200
M204 S800
; TYPE:Skirt/Brim
; WIDTH:0.42
G1 F973
G1 X115.871 Y95.46 E0.0455
G1 X116.85 Y94.612 E0.0455
G1 X117.907 Y93.863 E0.0455
G1 X119.033 Y93.221 E0.0455
G1 X120.216 Y92.693 E0.0455
G1 X121.446 Y92.283 E0.0455
G1 X122.709 Y91.996 E0.0455
G1 X123.995 Y91.834 E0.0455
G1 X125.29 Y91.799 E0.0455
G1 X126.583 Y91.891 E0.0455
G1 X127.86 Y92.109 E0.0455
G1 X129.11 Y92.452 E0.0455
G1 X130.32 Y92.915 E0.0455
G1 X131.479 Y93.495 E0.0455
G1 X132.575 Y94.185 E0.04551
G1 X133.599 Y94.98 E0.0455
G1 X134.54 Y95.871 E0.0455
G1 X135.388 Y96.85 E0.0455
G1 X136.137 Y97.907 E0.0455
G1 X136.779 Y99.033 E0.0455
G1 X137.307 Y100.216 E0.0455
G1 X137.717 Y101.446 E0.0455
G1 X138.004 Y102.709 E0.0455
G1 X138.166 Y103.995 E0.0455
G1 X138.201 Y105.29 E0.0455
M73 Q2 S7
G1 X138.109 Y106.583 E0.0455
G1 X137.891 Y107.86 E0.0455
G1 X137.548 Y109.11 E0.0455
G1 X137.085 Y110.32 E0.0455
G1 X136.505 Y111.479 E0.0455
M73 P2 R7
G1 X135.815 Y112.575 E0.04551
G1 X135.02 Y113.599 E0.0455
G1 X134.129 Y114.54 E0.0455
G1 X133.15 Y115.388 E0.0455
G1 X132.093 Y116.137 E0.0455
G1 X130.967 Y116.779 E0.0455
G1 X129.784 Y117.307 E0.0455
G1 X128.554 Y117.717 E0.0455
G1 X127.291 Y118.004 E0.0455
G1 X126.005 Y118.166 E0.0455
G1 X124.71 Y118.201 E0.0455
G1 X123.417 Y118.109 E0.0455
G1 X122.14 Y117.891 E0.0455
G1 X120.89 Y117.548 E0.0455
G1 X119.68 Y117.085 E0.0455
G1 X118.521 Y116.505 E0.0455
G1 X117.425 Y115.815 E0.04551
G1 X116.401 Y115.02 E0.0455
G1 X115.46 Y114.129 E0.0455
G1 X114.612 Y113.15 E0.0455
G1 X113.863 Y112.093 E0.0455
G1 X113.221 Y110.967 E0.0455
G1 X112.693 Y109.784 E0.0455
G1 X112.283 Y108.554 E0.0455
G1 X111.996 Y107.291 E0.0455
G1 X111.834 Y106.005 E0.0455
G1 X111.799 Y104.71 E0.0455
G1 X111.891 Y103.417 E0.0455
G1 X112.109 Y102.14 E0.0455
G1 X112.452 Y100.89 E0.0455
G1 X112.915 Y99.68 E0.0455
G1 X113.495 Y98.521 E0.0455
G1 X114.185 Y97.425 E0.04551
G1 X114.943 Y96.449 E0.0434
M204 S1000
G1 X115.241 Y96.68 F10800
M204 S800
G1 F973
G1 X116.134 Y95.73 E0.04579
G1 X117.085 Y94.906 E0.0442
G1 X118.113 Y94.179 E0.0442
G1 X119.207 Y93.556 E0.0442
G1 X120.356 Y93.043 E0.0442
G1 X121.551 Y92.646 E0.0442
G1 X122.778 Y92.367 E0.0442
G1 X124.027 Y92.21 E0.0442
G1 X125.286 Y92.176 E0.0442
G1 X126.541 Y92.266 E0.0442
G1 X127.782 Y92.478 E0.04421
G1 X128.996 Y92.811 E0.0442
G1 X130.171 Y93.262 E0.0442
G1 X131.297 Y93.825 E0.0442
G1 X132.362 Y94.496 E0.04421
G1 X133.356 Y95.268 E0.0442
G1 X134.27 Y96.134 E0.0442
G1 X135.094 Y97.085 E0.0442
G1 X135.821 Y98.113 E0.0442
G1 X136.444 Y99.207 E0.0442
M73 Q3 S7
G1 X136.957 Y100.356 E0.0442
G1 X137.354 Y101.551 E0.0442
G1 X137.633 Y102.778 E0.0442
G1 X137.79 Y104.027 E0.0442
G1 X137.824 Y105.286 E0.0442
M73 P3 R7
G1 X137.734 Y106.541 E0.0442
G1 X137.522 Y107.782 E0.04421
G1 X137.189 Y108.996 E0.0442
G1 X136.738 Y110.171 E0.0442
G1 X136.175 Y111.297 E0.0442
G1 X135.504 Y112.362 E0.04421
G1 X134.732 Y113.356 E0.0442
G1 X133.866 Y114.27 E0.0442
G1 X132.915 Y115.094 E0.0442
G1 X131.887 Y115.821 E0.0442
G1 X130.793 Y116.444 E0.0442
G1 X129.644 Y116.957 E0.0442
G1 X128.449 Y117.354 E0.0442
G1 X127.222 Y117.633 E0.0442
G1 X125.973 Y117.79 E0.0442
G1 X124.714 Y117.824 E0.0442
G1 X123.459 Y117.734 E0.0442
G1 X122.218 Y117.522 E0.04421
G1 X121.004 Y117.189 E0.0442
G1 X119.829 Y116.738 E0.0442
G1 X118.703 Y116.175 E0.0442
G1 X117.638 Y115.504 E0.04421
G1 X116.644 Y114.732 E0.0442
G1 X115.73 Y113.866 E0.0442
G1 X114.906 Y112.915 E0.0442
G1 X114.179 Y111.887 E0.0442
G1 X113.556 Y110.793 E0.0442
G1 X113.043 Y109.644 E0.0442
G1 X112.646 Y108.449 E0.0442
G1 X112.367 Y107.222 E0.0442
G1 X112.21 Y105.973 E0.0442
G1 X112.176 Y104.714 E0.0442
G1 X112.266 Y103.459 E0.0442
G1 X112.478 Y102.218 E0.04421
G1 X112.811 Y101.004 E0.0442
G1 X113.262 Y99.829 E0.0442
G1 X113.825 Y98.703 E0.0442
G1 X114.496 Y97.638 E0.04421
G1 X115.204 Y96.727 E0.04051
M204 S1000
; printing object smooth wheel.stl id:0 copy 0
G1 E-1.2 F2100
G1 X117.565 Y98.867 F10800
G1 E1.2 F1200
M204 S800
; TYPE:External perimeter
; WIDTH:0.419999
G1 F973
G1 X118.184 Y98.184 E0.03237
G1 X118.885 Y97.548 E0.03322
G1 X119.644 Y96.985 E0.03322
G1 X120.456 Y96.499 E0.03322
G1 X121.311 Y96.094 E0.03322
G1 X122.202 Y95.775 E0.03322
G1 X123.119 Y95.545 E0.03322
G1 X124.055 Y95.407 E0.03322
G1 X124.556 Y95.383 E0.01761
G1 X125.483 Y95.384 E0.03255
G1 X126.414 Y95.476 E0.03285
G1 X127.34 Y95.661 E0.03316
G1 X128.244 Y95.935 E0.03317
G1 X129.117 Y96.296 E0.03318
G1 X129.95 Y96.742 E0.03318
G1 X130.736 Y97.267 E0.03318
G1 X131.466 Y97.866 E0.03318
G1 X132.134 Y98.534 E0.03318
M73 Q4 S7
G1 X132.733 Y99.265 E0.03318
G1 X133.258 Y100.05 E0.03318
G1 X133.704 Y100.884 E0.03318
G1 X134.065 Y101.756 E0.03318
G1 X134.34 Y102.661 E0.03318
G1 X134.524 Y103.587 E0.03318
M73 P4 R7
G1 X134.617 Y104.528 E0.03318
G1 X134.617 Y105.472 E0.03318
G1 X134.593 Y105.945 E0.01661
G1 X134.455 Y106.881 E0.03322
G1 X134.225 Y107.798 E0.03322
G1 X133.906 Y108.689 E0.03322
G1 X133.501 Y109.544 E0.03322
G1 X133.015 Y110.356 E0.03322
G1 X132.452 Y111.115 E0.03322
G1 X131.816 Y111.816 E0.03322
G1 X131.115 Y112.452 E0.03322
G1 X130.356 Y113.015 E0.03322
G1 X129.544 Y113.501 E0.03322
G1 X128.689 Y113.906 E0.03322
G1 X127.798 Y114.225 E0.03322
G1 X126.881 Y114.455 E0.03322
G1 X125.945 Y114.593 E0.03322
G1 X125 Y114.64 E0.03322
G1 X124.055 Y114.593 E0.03322
G1 X123.119 Y114.455 E0.03322
G1 X122.202 Y114.225 E0.03322
G1 X121.311 Y113.906 E0.03322
G1 X120.456 Y113.501 E0.03322
G1 X119.644 Y113.015 E0.03322
G1 X118.885 Y112.452 E0.03322
G1 X118.184 Y111.816 E0.03322
G1 X117.548 Y111.115 E0.03322
G1 X116.985 Y110.356 E0.03322
G1 X116.499 Y109.544 E0.03322
G1 X116.094 Y108.689 E0.03322
G1 X115.775 Y107.798 E0.03322
G1 X115.545 Y106.881 E0.03322
G1 X115.407 Y105.945 E0.03322
G1 X115.36 Y105 E0.03322
G1 X115.407 Y104.055 E0.03322
G1 X115.545 Y103.119 E0.03322
G1 X115.775 Y102.202 E0.03322
G1 X116.094 Y101.311 E0.03322
G1 X116.499 Y100.456 E0.03322
G1 X116.985 Y99.644 E0.03322
G1 X117.527 Y98.913 E0.03196
M204 S1000
; stop printing object smooth wheel.stl id:0 copy 0
; LAYER_CHANGE
; Z:0.4
; HEIGHT:0.2
; BEFORE_LAYER_CHANGE
G92 E0.0
; 0.4
G1 Z0.4 F720
; AFTER_LAYER_CHANGE
; 0.4
G1 E-1.2 F2100
G1 X114.721 Y96.735 F10800
G1 E1.2 F1200
; TYPE:Skirt/Brim
; WIDTH:0.42
G1 F1193.382
G1 X114.98 Y96.401 E0.01484
G1 X115.871 Y95.46 E0.0455
G1 X116.85 Y94.612 E0.0455
G1 X117.907 Y93.863 E0.0455
G1 X119.033 Y93.221 E0.0455
G1 X120.216 Y92.693 E0.0455
G1 X121.446 Y92.283 E0.0455
G1 X122.709 Y91.996 E0.0455
G1 X123.995 Y91.834 E0.0455
G1 X125.29 Y91.799 E0.0455
G1 X126.583 Y91.891 E0.0455
G1 X127.86 Y92.109 E0.0455
G1 X129.11 Y92.452 E0.0455
G1 X130.32 Y92.915 E0.0455
G1 X131.479 Y93.495 E0.0455
G1 X132.575 Y94.185 E0.04551
G1 X133.599 Y94.98 E0.0455
G1 X134.54 Y95.871 E0.0455
G1 X135.388 Y96.85 E0.0455
G1 X136.137 Y97.907 E0.0455
G1 X136.779 Y99.033 E0.0455
G1 X137.307 Y100.216 E0.0455
G1 X137.717 Y101.446 E0.0455
G1 X138.004 Y102.709 E0.0455
G1 X138.166 Y103.995 E0.0455
G1 X138.201 Y105.29 E0.0455
G1 X138.109 Y106.583 E0.0455
M73 Q5 S7
G1 X137.891 Y107.86 E0.0455
G1 X137.548 Y109.11 E0.0455
G1 X137.085 Y110.32 E0.0455
G1 X136.505 Y111.479 E0.0455
G1 X135.815 Y112.575 E0.04551
M73 P5 R7
G1 X135.02 Y113.599 E0.0455
G1 X134.129 Y114.54 E0.0455
G1 X133.15 Y115.388 E0.0455
G1 X132.093 Y116.137 E0.0455
G1 X130.967 Y116.779 E0.0455
G1 X129.784 Y117.307 E0.0455
G1 X128.554 Y117.717 E0.0455
G1 X127.291 Y118.004 E0.0455
G1 X126.005 Y118.166 E0.0455
G1 X124.71 Y118.201 E0.0455
G1 X123.417 Y118.109 E0.0455
G1 X122.14 Y117.891 E0.0455
G1 X120.89 Y117.548 E0.0455
G1 X119.68 Y117.085 E0.0455
G1 X118.521 Y116.505 E0.0455
G1 X117.425 Y115.815 E0.04551
G1 X116.401 Y115.02 E0.0455
G1 X115.46 Y114.129 E0.0455
G1 X114.612 Y113.15 E0.0455
G1 X113.863 Y112.093 E0.0455
G1 X113.221 Y110.967 E0.0455
G1 X112.693 Y109.784 E0.0455
G1 X112.283 Y108.554 E0.0455
G1 X111.996 Y107.291 E0.0455
G1 X111.834 Y106.005 E0.0455
G1 X111.799 Y104.71 E0.0455
G1 X111.891 Y103.417 E0.0455
G1 X112.109 Y102.14 E0.0455
G1 X112.452 Y100.89 E0.0455
G1 X112.915 Y99.68 E0.0455
G1 X113.495 Y98.521 E0.0455
G1 X114.185 Y97.425 E0.04551
G1 X114.684 Y96.782 E0.02856
G1 X114.981 Y97.013 F10800
G1 F1193.382
G1 X115.268 Y96.644 E0.01643
G1 X116.134 Y95.73 E0.0442
G1 X117.085 Y94.906 E0.0442
G1 X118.113 Y94.179 E0.0442
G1 X119.207 Y93.556 E0.0442
G1 X120.356 Y93.043 E0.0442
G1 X121.551 Y92.646 E0.0442
G1 X122.778 Y92.367 E0.0442
G1 X124.027 Y92.21 E0.0442
G1 X125.286 Y92.176 E0.0442
G1 X126.541 Y92.266 E0.0442
G1 X127.782 Y92.478 E0.04421
G1 X128.996 Y92.811 E0.0442
G1 X130.171 Y93.262 E0.0442
G1 X131.297 Y93.825 E0.0442
G1 X132.362 Y94.496 E0.04421
G1 X133.356 Y95.268 E0.0442
G1 X134.27 Y96.134 E0.0442
G1 X135.094 Y97.085 E0.0442
G1 X135.821 Y98.113 E0.0442
G1 X136.444 Y99.207 E0.0442
G1 X136.957 Y100.356 E0.0442
G1 X137.354 Y101.551 E0.0442
G1 X137.633 Y102.778 E0.0442
G1 X137.79 Y104.027 E0.0442
G1 X137.824 Y105.286 E0.0442
G1 X137.734 Y106.541 E0.0442
G1 X137.522 Y107.782 E0.04421
G1 X137.189 Y108.996 E0.0442
G1 X136.738 Y110.171 E0.0442
G1 X136.175 Y111.297 E0.0442
G1 X135.504 Y112.362 E0.04421
G1 X134.732 Y113.356 E0.0442
G1 X133.866 Y114.27 E0.0442
G1 X132.915 Y115.094 E0.0442
M73 Q6 S7
G1 X131.887 Y115.821 E0.0442
G1 X130.793 Y116.444 E0.0442
G1 X129.644 Y116.957 E0.0442
G1 X128.449 Y117.354 E0.0442
G1 X127.222 Y117.633 E0.0442
G1 X125.973 Y117.79 E0.0442
M73 P6 R7
G1 X124.714 Y117.824 E0.0442
G1 X123.459 Y117.734 E0.0442
G1 X122.218 Y117.522 E0.04421
G1 X121.004 Y117.189 E0.0442
G1 X119.829 Y116.738 E0.0442
G1 X118.703 Y116.175 E0.0442
G1 X117.638 Y115.504 E0.04421
G1 X116.644 Y114.732 E0.0442
G1 X115.73 Y113.866 E0.0442
G1 X114.906 Y112.915 E0.0442
G1 X114.179 Y111.887 E0.0442
G1 X113.556 Y110.793 E0.0442
G1 X113.043 Y109.644 E0.0442
G1 X112.646 Y108.449 E0.0442
G1 X112.367 Y107.222 E0.0442
G1 X112.21 Y105.973 E0.0442
G1 X112.176 Y104.714 E0.0442
G1 X112.266 Y103.459 E0.0442
G1 X112.478 Y102.218 E0.04421
G1 X112.811 Y101.004 E0.0442
G1 X113.262 Y99.829 E0.0442
G1 X113.825 Y98.703 E0.0442
G1 X114.496 Y97.638 E0.04421
G1 X114.945 Y97.061 E0.02567
; printing object smooth wheel.stl id:0 copy 0
G1 E-1.2 F2100
G1 X117.489 Y98.948 F10800
G1 E1.2 F1200
M204 S800
; TYPE:External perimeter
; WIDTH:1.2
G1 F388.91
G1 X118.177 Y98.177 E0.11133
G1 X118.879 Y97.541 E0.10204
G1 X119.639 Y96.977 E0.10204
G1 X120.451 Y96.49 E0.10204
G1 X121.307 Y96.085 E0.10204
G1 X122.199 Y95.766 E0.10204
G1 X123.118 Y95.536 E0.10204
G1 X124.062 Y95.396 E0.10283
G1 X124.767 Y95.357 E0.07613
G1 X125.491 Y95.374 E0.07804
G1 X126.414 Y95.467 E0.09999
G1 X127.342 Y95.651 E0.10191
G1 X128.247 Y95.926 E0.10192
G1 X129.121 Y96.288 E0.10191
G1 X129.955 Y96.734 E0.10192
G1 X130.741 Y97.259 E0.10191
G1 X131.472 Y97.859 E0.10192
G1 X132.141 Y98.528 E0.10192
G1 X132.741 Y99.259 E0.10192
M73 Q7 S7
G1 X133.267 Y100.045 E0.10192
G1 X133.712 Y100.879 E0.10192
M73 P7 R7
G1 X134.074 Y101.753 E0.10191
G1 X134.349 Y102.658 E0.10192
G1 X134.533 Y103.586 E0.10191
G1 X134.626 Y104.527 E0.10191
G1 X134.626 Y105.473 E0.10192
G1 X134.603 Y105.946 E0.05102
G1 X134.464 Y106.882 E0.10204
G1 X134.234 Y107.801 E0.10204
G1 X133.915 Y108.693 E0.10204
G1 X133.51 Y109.549 E0.10204
G1 X133.023 Y110.361 E0.10204
G1 X132.459 Y111.121 E0.10204
G1 X131.823 Y111.823 E0.10204
G1 X131.121 Y112.459 E0.10204
G1 X130.361 Y113.023 E0.10204
G1 X129.549 Y113.51 E0.10204
G1 X128.693 Y113.915 E0.10204
G1 X127.801 Y114.234 E0.10204
G1 X126.882 Y114.464 E0.10204
G1 X125.946 Y114.603 E0.10204
G1 X125 Y114.649 E0.10204
G1 X124.054 Y114.603 E0.10204
G1 X123.118 Y114.464 E0.10204
G1 X122.199 Y114.234 E0.10204
G1 X121.307 Y113.915 E0.10204
G1 X120.451 Y113.51 E0.10204
G1 X119.639 Y113.023 E0.10204
G1 X118.879 Y112.459 E0.10204
G1 X118.177 Y111.823 E0.10204
G1 X117.541 Y111.121 E0.10204
G1 X116.977 Y110.361 E0.10204
M73 Q8 S7
G1 X116.49 Y109.549 E0.10204
G1 X116.085 Y108.693 E0.10204
M73 P8 R7
G1 X115.766 Y107.801 E0.10204
G1 X115.536 Y106.882 E0.10204
G1 X115.397 Y105.946 E0.10204
G1 X115.351 Y105 E0.10204
G1 X115.397 Y104.054 E0.10204
G1 X115.536 Y103.118 E0.10204
G1 X115.766 Y102.199 E0.10204
G1 X116.085 Y101.307 E0.10204
G1 X116.49 Y100.451 E0.10204
G1 X116.977 Y99.639 E0.10204
G1 X117.454 Y98.996 E0.08624
M204 S1000
; stop printing object smooth wheel.stl id:0 copy 0
; LAYER_CHANGE
; Z:0.6
; HEIGHT:0.2
; BEFORE_LAYER_CHANGE
G92 E0.0
; 0.6
G1 Z0.6 F720
; AFTER_LAYER_CHANGE
; 0.6
G1 E-1.2 F2100
G1 X114.653 Y96.822 F10800
G1 E1.2 F1200
; TYPE:Skirt/Brim
; WIDTH:0.42
G1 F1193.382
G1 X114.98 Y96.401 E0.01872
G1 X115.871 Y95.46 E0.0455
G1 X116.85 Y94.612 E0.0455
G1 X117.907 Y93.863 E0.0455
G1 X119.033 Y93.221 E0.0455
G1 X120.216 Y92.693 E0.0455
G1 X121.446 Y92.283 E0.0455
G1 X122.709 Y91.996 E0.0455
G1 X123.995 Y91.834 E0.0455
G1 X125.29 Y91.799 E0.0455
G1 X126.583 Y91.891 E0.0455
G1 X127.86 Y92.109 E0.0455
G1 X129.11 Y92.452 E0.0455
G1 X130.32 Y92.915 E0.0455
G1 X131.479 Y93.495 E0.0455
G1 X132.575 Y94.185 E0.04551
G1 X133.599 Y94.98 E0.0455
G1 X134.54 Y95.871 E0.0455
G1 X135.388 Y96.85 E0.0455
G1 X136.137 Y97.907 E0.0455
G1 X136.779 Y99.033 E0.0455
G1 X137.307 Y100.216 E0.0455
G1 X137.717 Y101.446 E0.0455
G1 X138.004 Y102.709 E0.0455
G1 X138.166 Y103.995 E0.0455
G1 X138.201 Y105.29 E0.0455
G1 X138.109 Y106.583 E0.0455
G1 X137.891 Y107.86 E0.0455
G1 X137.548 Y109.11 E0.0455
G1 X137.085 Y110.32 E0.0455
G1 X136.505 Y111.479 E0.0455
G1 X135.815 Y112.575 E0.04551
G1 X135.02 Y113.599 E0.0455
G1 X134.129 Y114.54 E0.0455
G1 X133.15 Y115.388 E0.0455
G1 X132.093 Y116.137 E0.0455
M73 Q9 S7
G1 X130.967 Y116.779 E0.0455
G1 X129.784 Y117.307 E0.0455
G1 X128.554 Y117.717 E0.0455
G1 X127.291 Y118.004 E0.0455
G1 X126.005 Y118.166 E0.0455
G1 X124.71 Y118.201 E0.0455
M73 P9 R7
G1 X123.417 Y118.109 E0.0455
G1 X122.14 Y117.891 E0.0455
G1 X120.89 Y117.548 E0.0455
G1 X119.68 Y117.085 E0.0455
G1 X118.521 Y116.505 E0.0455
G1 X117.425 Y115.815 E0.04551
G1 X116.401 Y115.02 E0.0455
G1 X115.46 Y114.129 E0.0455
G1 X114.612 Y113.15 E0.0455
G1 X113.863 Y112.093 E0.0455
G1 X113.221 Y110.967 E0.0455
G1 X112.693 Y109.784 E0.0455
G1 X112.283 Y108.554 E0.0455
G1 X111.996 Y107.291 E0.0455
G1 X111.834 Y106.005 E0.0455
G1 X111.799 Y104.71 E0.0455
G1 X111.891 Y103.417 E0.0455
G1 X112.109 Y102.14 E0.0455
G1 X112.452 Y100.89 E0.0455
G1 X112.915 Y99.68 E0.0455
G1 X113.495 Y98.521 E0.0455
G1 X114.185 Y97.425 E0.04551
G1 X114.616 Y96.87 E0.02468
G1 X114.914 Y97.101 F10800
G1 F1193.382
G1 X115.268 Y96.644 E0.02031
G1 X116.134 Y95.73 E0.0442
G1 X117.085 Y94.906 E0.0442
G1 X118.113 Y94.179 E0.0442
G1 X119.207 Y93.556 E0.0442
